images/renBTC.svg

<svg height="250" viewBox="0 0 250 250" width="250" xmlns="http://www.w3.org/2000/svg"><path d="m151.492188 106.960938c-3.835938 15.480468-27.734376 7.597656-35.511719 5.679687l6.890625-27.414063c7.738281 1.917969 32.667968 5.539063 28.621094 21.699219m-4.226563 44.210938c-4.226563 17.046875-32.917969 7.8125-42.222656 5.503906l7.527343-30.183594c9.304688 2.308594 39.0625 7.101563 34.695313 24.855469m31.320313-43.925781c2.523437-16.832031-10.15625-25.710938-27.484376-31.746094l5.609376-22.375-13.707032-3.550781-5.46875 21.910156c-3.550781-.886719-7.316406-1.738281-10.972656-2.554688l5.503906-22.089843-13.707031-3.550781-5.644531 22.515624c-2.984375-.675781-5.898438-1.351562-8.738282-2.058593l-18.75-4.652344-3.550781 14.628906s10.15625 2.34375 9.945313 2.484375c3.957031.464844 6.804687 4.027344 6.390625 7.992188l-6.640625 25.746094c.484375.09375.960937.238281 1.421875.425781l-1.457031-.355469-8.949219 35.902344c-.832031 2.636718-3.648438 4.101562-6.285157 3.265625 0 .179687-9.980468-2.519531-9.980468-2.519531l-6.816406 15.730468 17.753906 4.4375c3.339844.820313 6.570312 1.707032 9.765625 2.523438l-5.644531 22.796875 13.671874 3.550781 5.644532-22.546875c3.550781.992187 7.28125 1.917969 10.902344 2.839844l-5.574219 22.441406 13.707031 3.550781 5.683594-22.761718c23.363281 4.441406 40.976562 2.664062 48.363281-18.5 5.96875-17.011719-.28125-26.847657-12.605469-33.238282 8.984375-2.097656 15.730469-7.992187 17.507813-20.136718m71.414062 17.757812c-.136719 69.015625-56.183593 124.859375-125.203125 124.75-69.015625-.109375-124.882812-56.136719-124.796875-125.152344.0859378-69.019531 56.089844-124.9062498 125.105469-124.847656 69.035156 0 125 55.964844 125 125" fill="#87888c"/></svg>

<svg xmlns="http://www.w3.org/2000/svg" xmlns:xlink="http://www.w3.org/1999/xlink" width="250px" height="250px" viewBox="0 0 250 250" version="1.1">
<g id="surface1">
<path style=" stroke:none;fill-rule:nonzero;fill:rgb(52.941179%,53.333336%,54.901963%);fill-opacity:1;" d="M 151.492188 106.960938 C 147.65625 122.441406 123.757812 114.558594 115.980469 112.640625 L 122.871094 85.226562 C 130.609375 87.144531 155.539062 90.765625 151.492188 106.925781 M 147.265625 151.136719 C 143.039062 168.183594 114.347656 158.949219 105.042969 156.640625 L 112.570312 126.457031 C 121.875 128.765625 151.632812 133.558594 147.265625 151.3125 M 178.585938 107.386719 C 181.109375 90.554688 168.429688 81.675781 151.101562 75.640625 L 156.710938 53.265625 L 143.003906 49.714844 L 137.535156 71.625 C 133.984375 70.738281 130.21875 69.886719 126.5625 69.070312 L 132.066406 46.980469 L 118.359375 43.429688 L 112.714844 65.945312 C 109.730469 65.269531 106.816406 64.59375 103.976562 63.886719 L 85.226562 59.234375 L 81.675781 73.863281 C 81.675781 73.863281 91.832031 76.207031 91.621094 76.347656 C 95.578125 76.8125 98.425781 80.375 98.011719 84.339844 L 91.371094 110.085938 C 91.855469 110.179688 92.332031 110.324219 92.792969 110.511719 L 91.335938 110.15625 L 82.386719 146.058594 C 81.554688 148.695312 78.738281 150.160156 76.101562 149.324219 C 76.101562 149.503906 66.121094 146.804688 66.121094 146.804688 L 59.304688 162.535156 L 77.058594 166.972656 C 80.398438 167.792969 83.628906 168.679688 86.824219 169.496094 L 81.179688 192.292969 L 94.851562 195.84375 L 100.496094 173.296875 C 104.046875 174.289062 107.777344 175.214844 111.398438 176.136719 L 105.824219 198.578125 L 119.53125 202.128906 L 125.214844 179.367188 C 148.578125 183.808594 166.191406 182.03125 173.578125 160.867188 C 179.546875 143.855469 173.296875 134.019531 160.972656 127.628906 C 169.957031 125.53125 176.703125 119.636719 178.480469 107.492188 M 249.894531 125.25 C 249.757812 194.265625 193.710938 250.109375 124.691406 250 C 55.675781 249.890625 -0.191406 193.863281 -0.105469 124.847656 C -0.0195312 55.828125 55.984375 -0.0585938 125 0 C 194.035156 0 250 55.964844 250 125 "/>
</g>
</svg>
